X: 1907
T: Uşşak Peşrev
C: III. Selim (İlhâmî)
O: Turkey
F: http://compmusic.upf.edu/node/140
N: ussak--pesrev--devrikebir----iii_selim
N: makam= ussak
N: form= pesrev
N: usul= devrikebir = 28/4
M: 28/4
L: 1/16
K: C _2/4B   
Q: 1/4=87
%%MIDI tuningsystem comma53
G4 A4 z2A2 G2A2  | G4 A4 G2AB A2Bc  | \
w:   |   | 
B2cd c2de edcB A4  | 
w:   | 
BABc B4 cBcd c2de  | d2e2 d2c2 c2d2 c2B2  | \
w:   |   | 
BABc B2cd c3B A2B2  | 
w:   | 
G4 A4 A4 z4  | B3A B2c2 cBBA AGG^F  | \
w:   |   | 
G2z2 A2G2 A4 B4  | 
w:   | 
c2de d2c2 B2cd c2B2  | A2Bc B2A2 G4 e2de  | \
w:   |   | 
d2c4B2 cBcd c2B2  | 
w:   | 
c3B A4 B2c2 B4  | c2d2 c4 d6e2  | d2e2 d2c2 d2e2 f2g2  | \
w:   |   |   | 
e2f2 d2e2 d2c4d2  | 
w:   | 
c2BA B2c2 B4 A2B2  | c4 d2e2 d2c4B2  | \
w:   |   | 
z2d2 c2B2 A6c2  | c2B2 B2A2 AGAB A2G2  | 
w:   |   | 
^F3E D4 z4 E2D2  | E4 ^F4 G2A2 G2F2  | \
w:   |   | 
G4 A4 A2Bc B2A2  | AGG^F G4 ABAG A2B2  | 
w:   |   | 
c2d2 c2B2 f3e d2e2  | d2c4B2 z2d2 c2B2  | \
w:   |   | 
BABc B2c2 B3A G2A2  | 
w:   | 
G4 AcBA A4 z4  | c2d4d2 c3B A4  | B2c4c2 B3A G4  | \
w:   |   |   | 
A2B2 c2d2 e2d2 c2B2  | 
w:   | 
c6G2 e2dc c4  | z4 A2B2 c4 d2e2  | d2c2 B2A2 cBBA B2c2  | 
w:   |   |   | 
d6e2 d2e2 c4  | d2e2 f2g2 f2e2 d2c2  | \
w:   |   | 
B2A2 B2c2 B3A G4  | d6B2 c6A2  | 
w:   |   | 
B3A B2c2 cBBA G2A2  | G4 A4 z4 BAB2  | \
w:   |   | 
A6d2 ^c4 d3c  | 
w:   | 
_7/8B4 ^c4 d4 z4  | f3e d2^c2 c_7/8BBA G2A2  | \
w:   |   | 
G4 A4 z4 A2G2  | A2Bc B2A2 AGG^F G4  | 
w:   |   | 
z2A4G2 A2G2 A2B2  | c2d2 c2B2 A6c2  | \
w:   |   | 
B2c2 A2B2 AGAB A2G2  | 
w:   | 
^F3E D4 z4 E2D2  | E4 ^F4 G2A2 G2F2  | \
w:   |   | 
G4 A4 A2Bc B2A2  | AGG^F G4 ABAG A2B2  | 
w:   |   | 
c2d2 c2B2 f3e d2e2  | d2c4B2 z2d2 c2B2  | \
w:   |   | 
BABc B2c2 B3A G2A2  | 
w:   | 
G4 AcBA A4 z4  | |


